X: 1
T:Leaving Port Askaig
M:6/8
L:1/8
Q:80
C:Pipe Major W. Ross
S:March
K:HP
|: e|
{g}A3/2B/2{GdG}c{g}c/2e3/2{g}c|
{gBd}B3{G}A2e|
{g}A3/2B/2{GdG}c{g}c/2e3/2a|  !
{fg}f3{gef}e2{gf}g|
a2{GdG}a{fg}f2a|
{ef}e3/2c/2{d}A{gBd}B2{d}c|  !
{g}A3/2B/2{GdG}c{g}e3/2f/2c|
{gBd}B3{G}A2:| |:
{gf}g|  !
{ag}a3{ef}e3|
{g}f/2a3/2f{gef}e3|
{g}A3/2B/2{GdG}c{g}c/2e3/2a|  !
{fg}f3{gef}e2|1 {gf}g|1
{ag}a3{ef}e3|
{g}f/2a3/2f{gef}e3|  !
{g}A3/2B/2{GdG}c{g}e3/2f/2c|
{gBd}B3{G}A2:|2
{ag}a|  !
A3/2{d}c/2e{g}e3/2f/2g|
a3/2g/2f{gef}e3|
{g}A3/2B/2{GdG}c{g}e3/2f/2c|  !
{gBd}B3{G}A2|] |:
B|
{g}c/2{d}A3/2{d}c{g}c/2e3/2{g}c|
{gBd}B3{G}A2B|  !
{g}c/2{d}A3/2{d}c{g}c/2e3/2a|
{fg}f3{gef}e2{gf}g|
a2{GdG}a{fg}f2a|  !
{ef}e3/2c/2{d}A{gBd}B2{d}c|
{g}A3/2B/2{GdG}c{g}e3/2f/2c|
{gBd}B3{G}A2:| |:  !
{gf}g|
a2{GdG}a{ef}e2a|
{fg}f3/2e/2c{gef}e2{gf}g|  !
a2{GdG}ae3/2f/2a|
{fg}f3{gef}e2|1 {gf}g|1
a2{GdG}a{ef}e2a|  !
{fg}f3/2e/2c{gef}e2{ag}a|
A3/2B/2{GdG}c{g}e3/2f/2c|
{gBd}B3{G}A2:|2  !
a|
A3/2{d}c/2e{g}e3/2f/2g|
a3/2g/2f{gef}e3|
{g}A3/2B/2{GdG}c{g}e3/2f/2c|  !
{gBd}B3{G}A2|]
